!!! OTL: Berkowitz257
!!! Chapter: 1
!!! Section: II
!!! Page: 60
!!! Mode: 
!!! Encoder: DJB
**kern
*staff1
*I"Piano
=1-
*clefG2
*k[b-e-a-]
*E-:
*M3/4
4r
4r
4B-/
=2
2g/
4d/
=3
2e-/
8f/L
8g/J
=4
4.a-/
8g/
8f/L
8e-/J
=5
4e-/
4d/
4B-/
=6
2a-/
8g/L
8f/J
=7
4b-\
4g/
4e-/
=8
4f/
4a-/
4g/
=9
2f/
4e-/
=10
4cc\
4r
4e-/
=11
4b-\
4r
4e-/
=12
!!linebreak:original
4.a-/
8g/
8f/L
8e-/J
=13
4g/
4f/
4B-/
=14
2g/
4e-/
=15
4.a-/
8b-\
4cc\
=16
4b-\
4B-/
8.g/L
16f/Jk
=17
4e-/
2r
==
*-
